!!!OTL: Die irdische Pilgerfahrt Ich weiss ein schoen's Himmelreich
!!!ARE: Europa, Mitteleuropa, Lothringen, Hambach
!!!SCT: D0055
!!!YEM: Copyright 1995, estate of Helmut Schaffrath.
**kern
*ICvox
*Ivox
!! Mixed meters:  3/4; 4/4
*M4/4
*k[b-e-]
*g:
{4g
=1
2g
4g
=2
2.dd
=3
4ee-
4ffn
4ee-
=4
2dd}
{4dd
=5
4.cc
8dd
4cc
=6
4b-
4a
8g
8a
=7
4b-
4a
4g
=8
2r}
{4gg
=9
4dd
4dd
4gg
=10
4dd
4dd
4cc
=11
4.b-
8dd
8b-
8a
=12
2g}
{2g
=13
*M3/4
4b-
4dd
4cc
=14
4.dd
8ee-
8dd
8cc
=15
*M4/4
2b-
4a
[4g
=16
4g]
2.r}
==
!!!AGN: geistliches Lied
!! Sonderzeichen in der Notation
!!!ONB: ESAC (Essen Associative Code) Database: DVA
!!!AMT: irregular
!!!AIN: vox
!!!EED: Helmut Schaffrath
!!!EEV: 1.0
*-
